!!!COM: Palestrina, Giovanni Perluigi da
!!!OPR: Missa Hodie Christus Natus Est
!!!OMD: Gloria
!!!OTL: Qui tollis
**kern	**kern	**kern	**kern	**kern	**kern	**kern	**kern
*Ibass	*Itenor	*Itenor	*Icalto	*Ibass	*Icalto	*Icant	*Icant
!Bassus	!Tenor 2	!Tenor 1	!Altus	!Bassus	!Altus	!Cantus 2	!Cantus 1
*clefF4	*clefGv2	*clefGv2	*clefG2	*clefF4	*clefG2	*clefG2	*clefG2
*k[]	*k[]	*k[]	*k[]	*k[]	*k[]	*k[]	*k[]
*G:mix	*G:mix	*G:mix	*G:mix	*G:mix	*G:mix	*G:mix	*G:mix
*M4/2	*M4/2	*M4/2	*M4/2	*M4/2	*M4/2	*M4/2	*M4/2
=62	=62	=62	=62	=62	=62	=62	=62
0G	1d	0B	0g	0r	0r	0r	0r
.	1d	.	.	.	.	.	.
=63	=63	=63	=63	=63	=63	=63	=63
1G	2G	1B	2.g	0r	0r	0r	0r
.	2g	.	.	.	.	.	.
.	.	.	4f	.	.	.	.
1C	4g	2c	1e	.	.	.	.
.	4f	.	.	.	.	.	.
.	4e	2g	.	.	.	.	.
.	4d	.	.	.	.	.	.
=64	=64	=64	=64	=64	=64	=64	=64
2r	1e	4g	1c	0r	0r	0r	0r
.	.	4f	.	.	.	.	.
2c	.	4e	.	.	.	.	.
.	.	4d	.	.	.	.	.
4c	2c	1e	2r	.	.	.	.
4B	.	.	.	.	.	.	.
4A	[2e	.	2cc	.	.	.	.
4G	.	.	.	.	.	.	.
=65	=65	=65	=65	=65	=65	=65	=65
1A	4e]	4c	4cc	0r	0r	0r	0r
.	4d	4d	4b	.	.	.	.
.	4c	4e	4a	.	.	.	.
.	4B	8d	4g	.	.	.	.
.	.	8e	.	.	.	.	.
2F	4c	2.f	2.a	.	.	.	.
.	8d	.	.	.	.	.	.
.	8e	.	.	.	.	.	.
[2D	[2f	.	.	.	.	.	.
.	.	4g	4g	.	.	.	.
=66	=66	=66	=66	=66	=66	=66	=66
4D]	4f]	2a	1f	0r	0r	0r	0r
4E	4e	.	.	.	.	.	.
4F	2d	4A	.	.	.	.	.
4G	.	4B	.	.	.	.	.
2.A	1c	4c	1e	.	.	.	.
.	.	4d	.	.	.	.	.
.	.	[2e	.	.	.	.	.
4G	.	.	.	.	.	.	.
=67	=67	=67	=67	=67	=67	=67	=67
1F	2.A	2e]	1a	0r	0r	0r	0r
.	.	2d	.	.	.	.	.
.	4B	.	.	.	.	.	.
1C	2c	1e	2g	.	.	.	.
.	[2e	.	[2cc	.	.	.	.
=68	=68	=68	=68	=68	=68	=68	=68
1G	2e]	1g	2cc]	0r	0r	0r	0r
.	2d	.	2b	.	.	.	.
1C	2.c	1e	2a	.	.	.	.
.	.	.	2g	.	.	.	.
.	4B	.	.	.	.	.	.
=69	=69	=69	=69	=69	=69	=69	=69
2D	2A	2d	2f#	0r	0r	0r	0r
2E	2G	2c	1g	.	.	.	.
1D	1A	1d	.	.	.	.	.
.	.	.	2f#	.	.	.	.
=70	=70	=70	=70	=70	=70	=70	=70
1G	1B	1d	1g	2r	2r	2r	2r
.	.	.	.	2G	2g	2b	2dd
1r	1r	1r	2r	1G	1g	1b	1dd
.	.	.	2g	.	.	.	.
=71	=71	=71	=71	=71	=71	=71	=71
2r	2r	2r	1g	0C	2.g	2cc	1.ee
2c	2e	2g	.	.	.	2gg	.
.	.	.	.	.	4f	.	.
1c	1e	1g	[1c	.	4e	4gg	.
.	.	.	.	.	4d	4ff	.
.	.	.	.	.	[2c	4ee	2gg
.	.	.	.	.	.	4dd	.
=72	=72	=72	=72	=72	=72	=72	=72
1C	1g	1e	1c]	2r	4c]	2ee	4gg
.	.	.	.	.	4d	.	4ff
.	.	.	.	2c	2e	1cc	4ee
.	.	.	.	.	.	.	4dd
1r	1r	1r	1r	4c	2r	.	1ee
.	.	.	.	4B	.	.	.
.	.	.	.	4A	2cc	2ee	.
.	.	.	.	4G	.	.	.
=73	=73	=73	=73	=73	=73	=73	=73
0r	0r	0r	0r	1A	4cc	2ee	1.cc
.	.	.	.	.	4b	.	.
.	.	.	.	.	4a	2ee	.
.	.	.	.	.	4g	.	.
.	.	.	.	2F	1a	2.ff	.
.	.	.	.	[2D	.	.	2dd
.	.	.	.	.	.	4ee	.
=74	=74	=74	=74	=74	=74	=74	=74
0r	0r	0r	0r	4D]	1f	2dd	1a
.	.	.	.	4E	.	.	.
.	.	.	.	4F	.	4cc	.
.	.	.	.	4G	.	4b	.
.	.	.	.	4A	2.e	4cc	2r
.	.	.	.	4B	.	4dd	.
.	.	.	.	[2c	.	[2ee	2g
.	.	.	.	.	4d	.	.
=75	=75	=75	=75	=75	=75	=75	=75
0r	0r	0r	0r	2c]	4e	2ee]	2g
.	.	.	.	.	4f	.	.
.	.	.	.	2B	1g	2dd	2g
.	.	.	.	1A	.	1cc	1a
.	.	.	.	.	2f#	.	.
=76	=76	=76	=76	=76	=76	=76	=76
1r	1r	1r	1r	1G	1g	1b	1dd
1G	1B	2r	1g	2r	2r	2r	2r
.	.	[2d	.	[2G	[2g	[2dd	[2b
=77	=77	=77	=77	=77	=77	=77	=77
1B	1G	2d]	1g	2G]	2g]	2dd]	2b]
.	.	2d	.	2G	2g	2dd	2b
1c	1g	2e	1e	1C	2g	1cc	1ee
.	.	[2c	.	.	[2e	.	.
=78	=78	=78	=78	=78	=78	=78	=78
2.C	2.e	2c]	2.g	2.c	2e]	2.ee	2.cc
.	.	2c	.	.	2c	.	.
4C	4e	.	4g	4c	.	4ee	4cc
2C	2e	2c	2g	2c	2e	2ee	2cc
2C	2c	2G	2g	2c	2e	2ee	2cc
=79	=79	=79	=79	=79	=79	=79	=79
1G	1d	4B	1g	1G	2g	1.dd	1b
.	.	4c	.	.	.	.	.
.	.	4d	.	.	1d	.	.
.	.	4e	.	.	.	.	.
1G	1B	2d	2G	1B	.	.	1dd
.	.	2d	[2d	.	[2g	2g	.
=80	=80	=80	=80	=80	=80	=80	=80
0D	0A	0d	4d]	0d	2g]	0a	1dd
.	.	.	4e	.	.	.	.
.	.	.	4f#	.	4f#	.	.
.	.	.	4g	.	4e	.	.
.	.	.	2a	.	1f#	.	1dd
.	.	.	2d	.	.	.	.
=81	=81	=81	=81	=81	=81	=81	=81
0G	0G	0B	0d	1G	0g	1b	2r
.	.	.	.	.	.	.	2dd
.	.	.	.	1r	.	2r	1dd
.	.	.	.	.	.	2dd	.
=82	=82	=82	=82	=82	=82	=82	=82
0r	0r	0r	0r	0r	1r	1dd	4b
.	.	.	.	.	.	.	4a
.	.	.	.	.	.	.	4b
.	.	.	.	.	.	.	4cc
.	.	.	.	.	2r	4b	2.dd
.	.	.	.	.	.	4a	.
.	.	.	.	.	2g	4b	.
.	.	.	.	.	.	4cc	4cc
=83	=83	=83	=83	=83	=83	=83	=83
0r	0r	0r	0r	1r	1g	2dd	2.b
.	.	.	.	.	.	2gg	.
.	.	.	.	.	.	.	4a
.	.	.	.	2r	4e	1gg	2.g
.	.	.	.	.	4d	.	.
.	.	.	.	2c	4e	.	.
.	.	.	.	.	4f	.	8a
.	.	.	.	.	.	.	8b
=84	=84	=84	=84	=84	=84	=84	=84
0r	0r	0r	0r	1c	2.g	0ee	0cc
.	.	.	.	.	8f	.	.
.	.	.	.	.	8g	.	.
.	.	.	.	4A	[1a	.	.
.	.	.	.	4G	.	.	.
.	.	.	.	4A	.	.	.
.	.	.	.	4B	.	.	.
=85	=85	=85	=85	=85	=85	=85	=85
0r	0r	0r	0r	2c	2a]	1ee	1cc
.	.	.	.	2c	2g	.	.
.	.	.	.	2.d	2.f	2.dd	2.a
.	.	.	.	4B	4d	4dd	4b
=86	=86	=86	=86	=86	=86	=86	=86
1r	1r	1r	1r	2c	2e	2cc	2g
.	.	.	.	2A	2f#	2cc	2a
2r	1d	2r	2r	1G	1g	1b	1dd
[2G	.	[2B	[2g	.	.	.	.
=87	=87	=87	=87	=87	=87	=87	=87
2G]	2e	2B]	2g]	0r	0r	0r	0r
2A	1c	2c	2e	.	.	.	.
1F	.	1A	1a	.	.	.	.
.	[2d	.	.	.	.	.	.
=88	=88	=88	=88	=88	=88	=88	=88
1G	4d]	2B	1g	0r	0r	0r	0r
.	4c	.	.	.	.	.	.
.	4B	2.d	.	.	.	.	.
.	4A	.	.	.	.	.	.
1E	2G	.	1g	.	.	.	.
.	.	8c#	.	.	.	.	.
.	.	8B	.	.	.	.	.
.	2G	2c#	.	.	.	.	.
=89	=89	=89	=89	=89	=89	=89	=89
1D	1A	1d	1f#	1d	2r	1a	2r
.	.	.	.	.	2f#	.	1dd
1r	1r	1r	1r	2G	1g	2b	.
.	.	.	.	4c	.	2g	2ee
.	.	.	.	4B	.	.	.
=90	=90	=90	=90	=90	=90	=90	=90
0r	0r	0r	0r	4A	1e	1a	1cc
.	.	.	.	4G	.	.	.
.	.	.	.	4F	.	.	.
.	.	.	.	4E	.	.	.
.	.	.	.	2D	4.f	1ff	1dd
.	.	.	.	.	8g	.	.
.	.	.	.	2D	[2a	.	.
=91	=91	=91	=91	=91	=91	=91	=91
1r	1r	1r	1r	1E	2a]	0ee	1b
.	.	.	.	.	2g#	.	.
2r	2r	2r	2r	1A	1a	.	1a
[2A	[2c#	[2e	[2a	.	.	.	.
=92	=92	=92	=92	=92	=92	=92	=92
2A]	2c#]	2e]	2a]	0r	0r	0r	0r
2A	2c#	2e	2a	.	.	.	.
1D	1d	2.f	2a	.	.	.	.
.	.	.	2a	.	.	.	.
.	.	8e	.	.	.	.	.
.	.	8d	.	.	.	.	.
=93	=93	=93	=93	=93	=93	=93	=93
2r	0r	2e	2g	0r	0r	0r	0r
2d	.	1a	2f	.	.	.	.
2c	.	.	2e	.	.	.	.
2B	.	2g	2d	.	.	.	.
=94	=94	=94	=94	=94	=94	=94	=94
2.A	2r	2f	2a	0r	0r	0r	0r
.	2a	1e	1cc	.	.	.	.
4B	.	.	.	.	.	.	.
2c	2g	.	.	.	.	.	.
2d	2f	[2d	2a	.	.	.	.
=95	=95	=95	=95	=95	=95	=95	=95
1A	1e	2d]	1a	0r	0r	0r	0r
.	.	2c#	.	.	.	.	.
1D	1f#	1d	1a	.	.	.	.
=96	=96	=96	=96	=96	=96	=96	=96
0r	0r	0r	0r	1D	1f#	2r	1a
.	.	.	.	.	.	2dd	.
.	.	.	.	2.G	2.g	2.dd	2.b
.	.	.	.	4E	4g	4ee	4cc
=97	=97	=97	=97	=97	=97	=97	=97
1r	1r	1r	1r	2F	2a	2cc	2a
.	.	.	.	2D	2f	2dd	2b
2r	2r	2r	2r	1C	1g	1ee	1cc
2c	2g	2e	2cc	.	.	.	.
=98	=98	=98	=98	=98	=98	=98	=98
2.d	2f	2.f	2.a	0r	0r	0r	0r
.	2d	.	.	.	.	.	.
4B	.	4g	4b	.	.	.	.
2c	2e	2e	2g	.	.	.	.
2A	2f#	2c	2cc	.	.	.	.
=99	=99	=99	=99	=99	=99	=99	=99
1G	1g	1d	1b	2r	2r	2r	2r
.	.	.	.	2G	2g	2b	2dd
1r	1r	1r	1r	1c	1g	1cc	1ee
=100	=100	=100	=100	=100	=100	=100	=100
0r	0r	0r	0r	2F	2a	2cc	1.ff
.	.	.	.	2F	2a	2cc	.
.	.	.	.	4F	[1cc	4a	.
.	.	.	.	4G	.	4b	.
.	.	.	.	4A	.	4cc	2ee
.	.	.	.	4B	.	4dd	.
=101	=101	=101	=101	=101	=101	=101	=101
0r	0r	0r	0r	2c	2cc]	4ee	2ee
.	.	.	.	.	.	4ff	.
.	.	.	.	2c	2cc	1gg	2ee
.	.	.	.	[1d	[1a	.	[1dd
.	.	.	.	.	.	2ff#	.
=102	=102	=102	=102	=102	=102	=102	=102
1D	2r	1d	1a	1d]	1a]	1ff#	1dd]
.	2a	.	.	.	.	.	.
1G	1g	1B	1d	1r	1r	1r	1r
=103	=103	=103	=103	=103	=103	=103	=103
2C	2.e	4c	2.g	0r	0r	0r	0r
.	.	4d	.	.	.	.	.
2C	.	4e	.	.	.	.	.
.	4d	4f	4f	.	.	.	.
4C	2c	[1g	1e	.	.	.	.
4D	.	.	.	.	.	.	.
4E	4G	.	.	.	.	.	.
4F	4A	.	.	.	.	.	.
=104	=104	=104	=104	=104	=104	=104	=104
4G	4B	1g]	1d	0r	0r	0r	0r
4A	4c	.	.	.	.	.	.
4B	2.d	.	.	.	.	.	.
4c	.	.	.	.	.	.	.
2d	.	2r	4f	.	.	.	.
.	4e	.	4g	.	.	.	.
2d	4f	2f	4a	.	.	.	.
.	4d	.	4b	.	.	.	.
=105	=105	=105	=105	=105	=105	=105	=105
0c	2e	2g	2cc	0r	0r	1r	0r
.	1f	2a	2cc	.	.	.	.
.	.	1g	1cc	.	.	[1cc	.
.	2e	.	.	.	.	.	.
=106	=106	=106	=106	=106	=106	=106	=106
1r	1f	1a	2r	0F	2.a	1cc]	0cc
.	.	.	2.a	.	.	.	.
.	.	.	.	.	4g	.	.
[1F	[1c	2r	.	.	4f	[1a	.
.	.	.	4b	.	4g	.	.
.	.	[2f	2cc	.	4a	.	.
.	.	.	.	.	4b	.	.
=107	=107	=107	=107	=107	=107	=107	=107
1F]	2c]	4f]	1f	2.A	1cc	2a]	1.a
.	.	4g	.	.	.	.	.
.	2f	1a	.	.	.	2.cc	.
.	.	.	.	4B	.	.	.
2.A	2.e	.	1cc	1c	1c	.	.
.	.	.	.	.	.	4dd	.
.	.	2a	.	.	.	[2ee	[2cc
4B	4d	.	.	.	.	.	.
=108	=108	=108	=108	=108	=108	=108	=108
1c	4e	2.g	2cc	1C	[0g	4ee]	4cc]
.	4f	.	.	.	.	4dd	4dd
.	1g	.	4c	.	.	4cc	2.ee
.	.	4f	4d	.	.	4b	.
1C	.	1e	4e	[1c	.	1cc	.
.	.	.	4f	.	.	.	4dd
.	[2G	.	2g	.	.	.	4ee
.	.	.	.	.	.	.	4ff
=109	=109	=109	=109	=109	=109	=109	=109
0G	4G]	0d	2g	2c]	0g]	0dd	0gg
.	4A	.	.	.	.	.	.
.	4B	.	2.g	4B	.	.	.
.	4c	.	.	4A	.	.	.
.	2d	.	.	1B	.	.	.
.	.	.	4a	.	.	.	.
.	2G	.	2b	.	.	.	.
*-	*-	*-	*-	*-	*-	*-	*-
!!!CDT: 1525/^1526/-1594/2/2
!!!OCY: Italia
!!!AGN: Mass (Parody)
!!!AST: renaissance, vocal
!!!ASW: Motet 1575 (Palestrina)
!!!PWK: Masses, Book 8vce
!!!RNB: Cadence finals: C,D
!!!YOR: Le Opere Complete, v. 30, p. 59
!!!YOO: Rome, Italy: Fratelli Scalera
!!!END: 1992//
!!!EED: John Miller
!!!YEC: Copyright 2000, John Miller
!!!YEN: United States of America
!!!YEM: Rights to all derivative electronic formats reserved.
!!!YEM: Refer to licensing agreement for further details.
!!!YEM: This file must be accompanied by the licensing agreement.
!!!YEM: A copy of the licensing agreement may be found at http://www.music-cog.ohio-state.edu/HumdrumDatabases/Palestrina/license.txt
!!!EMD: converted to Humdrum by Bret Aarden
